img/logo-png-name.svg

<svg width="76" height="55" viewBox="0 0 76 55" fill="none" xmlns="http://www.w3.org/2000/svg">
<g clip-path="url(#clip0_16_178)">
<path d="M0 0H2.32086V32.7668H9.25075V0H11.5716V55H9.25075V35.5265H2.32086V55H0V0Z" fill="url(#paint0_linear_16_178)"/>
<path d="M28.7328 0L22.9797 35.5265V55H20.6589V35.5265L14.873 0H16.9978L21.8356 29.6184L26.6408 0H28.7328Z" fill="url(#paint1_linear_16_178)"/>
<path d="M38.997 55H32.0344V0H38.9643C41.5467 0 43.5733 2.44876 43.5733 5.48057V49.4806C43.606 52.4735 41.5467 55 38.997 55ZM34.3553 2.75972V52.2403H38.9643C40.2065 52.2403 41.2852 50.9965 41.2852 49.4806V5.48057C41.2852 4.00353 40.2392 2.72085 38.9643 2.72085H34.3553V2.75972Z" fill="url(#paint2_linear_16_178)"/>
<path d="M58.806 55H56.4198L52.3337 35.5265H49.5552V55H47.2344V0H54.1643C56.7466 0 58.7733 2.44876 58.7733 5.48057V30.0071C58.7733 32.7668 56.9755 35.0989 54.6873 35.4099L58.806 55ZM49.5552 32.7668H54.1643C55.4064 32.7668 56.4851 31.523 56.4851 30.0071V5.48057C56.4851 4.00353 55.4391 2.72085 54.1643 2.72085H49.5552V32.7668Z" fill="url(#paint3_linear_16_178)"/>
<path d="M65.8012 35.5265L64.1995 55H62.1074L66.7491 0H71.3582L75.9672 55H73.8752L72.2734 35.5265H65.8012ZM69.495 2.75972H68.5797L66.0627 32.7668H72.0119L69.495 2.75972Z" fill="url(#paint4_linear_16_178)"/>
</g>
<defs>
<linearGradient id="paint0_linear_16_178" x1="5.78581" y1="0" x2="5.78581" y2="55" gradientUnits="userSpaceOnUse">
<stop stop-color="#C0B7E8"/>
<stop offset="1" stop-color="#8176AF"/>
</linearGradient>
<linearGradient id="paint1_linear_16_178" x1="21.8029" y1="0" x2="21.8029" y2="55" gradientUnits="userSpaceOnUse">
<stop stop-color="#C0B7E8"/>
<stop offset="1" stop-color="#8176AF"/>
</linearGradient>
<linearGradient id="paint2_linear_16_178" x1="37.8041" y1="0" x2="37.8041" y2="55" gradientUnits="userSpaceOnUse">
<stop stop-color="#C0B7E8"/>
<stop offset="1" stop-color="#8176AF"/>
</linearGradient>
<linearGradient id="paint3_linear_16_178" x1="53.0202" y1="0" x2="53.0202" y2="55" gradientUnits="userSpaceOnUse">
<stop stop-color="#C0B7E8"/>
<stop offset="1" stop-color="#8176AF"/>
</linearGradient>
<linearGradient id="paint4_linear_16_178" x1="69.0373" y1="0" x2="69.0373" y2="55" gradientUnits="userSpaceOnUse">
<stop stop-color="#C0B7E8"/>
<stop offset="1" stop-color="#8176AF"/>
</linearGradient>
<clipPath id="clip0_16_178">
<rect width="76" height="55" fill="white"/>
</clipPath>
</defs>
</svg>

<svg width="76" height="55" fill="none" xmlns="http://www.w3.org/2000/svg"><g clip-path="url(#a)"><path d="M0 0h2.32v32.767h6.93V0h2.322v55H9.25V35.526H2.32V55H0V0z" fill="url(#b)"/><path d="M28.733 0 22.98 35.526V55h-2.321V35.526L14.873 0h2.125l4.838 29.618L26.64 0h2.092z" fill="url(#c)"/><path d="M38.997 55h-6.963V0h6.93c2.583 0 4.61 2.449 4.61 5.48v44c.032 2.994-2.027 5.52-4.577 5.52zM34.355 2.76v49.48h4.61c1.241 0 2.32-1.244 2.32-2.76v-44c0-1.476-1.046-2.76-2.32-2.76h-4.61v.04z" fill="url(#d)"/><path d="M58.806 55H56.42l-4.086-19.474h-2.779V55h-2.32V0h6.93c2.582 0 4.608 2.449 4.608 5.48v24.527c0 2.76-1.798 5.092-4.086 5.403L58.806 55zm-9.25-22.233h4.608c1.242 0 2.321-1.244 2.321-2.76V5.481c0-1.477-1.046-2.76-2.32-2.76h-4.61v30.046z" fill="url(#e)"/><path d="M65.801 35.526 64.2 55h-2.092L66.75 0h4.61l4.608 55h-2.092l-1.602-19.474h-6.472zM69.495 2.76h-.915l-2.517 30.007h5.949L69.495 2.76z" fill="url(#f)"/></g><defs><linearGradient id="b" x1="5.786" y1="0" x2="5.786" y2="55" gradientUnits="userSpaceOnUse"><stop stop-color="#C0B7E8"/><stop offset="1" stop-color="#8176AF"/></linearGradient><linearGradient id="c" x1="21.803" y1="0" x2="21.803" y2="55" gradientUnits="userSpaceOnUse"><stop stop-color="#C0B7E8"/><stop offset="1" stop-color="#8176AF"/></linearGradient><linearGradient id="d" x1="37.804" y1="0" x2="37.804" y2="55" gradientUnits="userSpaceOnUse"><stop stop-color="#C0B7E8"/><stop offset="1" stop-color="#8176AF"/></linearGradient><linearGradient id="e" x1="53.02" y1="0" x2="53.02" y2="55" gradientUnits="userSpaceOnUse"><stop stop-color="#C0B7E8"/><stop offset="1" stop-color="#8176AF"/></linearGradient><linearGradient id="f" x1="69.037" y1="0" x2="69.037" y2="55" gradientUnits="userSpaceOnUse"><stop stop-color="#C0B7E8"/><stop offset="1" stop-color="#8176AF"/></linearGradient><clipPath id="a"><path fill="#fff" d="M0 0h76v55H0z"/></clipPath></defs></svg>
